src/actions/24/document-edit-sign.svg

<svg viewBox="0 0 24 24" xmlns="http://www.w3.org/2000/svg">
 <defs>
  <style type="text/css">.ColorScheme-Text {
        color:#2e3440;
      }</style>
 </defs>
 <path class="ColorScheme-Text" d="m5 4v1 14 1h5v-1h-4v-14h12v7h1v-8h-14zm12 8-0.99609 0.99414h-0.003906l-5 4.9941 0.007812 0.001953-0.003906 1.002h-0.003906v0.99023h2 0.005859 0.003907 0.009765l-0.005859-0.001953 0.98633-0.98633 4-3.9922-0.70508-0.70898-4.9902 4.9824-0.59375-0.5918 4.9922-4.9844 0.5918 0.59375 0.70508 0.70312 1-1-2-1.9961z" fill="currentColor"/>
</svg>

<svg xmlns="http://www.w3.org/2000/svg" viewBox="0 0 24 24">
  <defs id="defs3051">
    <style type="text/css" id="current-color-scheme">
      .ColorScheme-Text {
        color:#2e3440;
      }
      </style>
  </defs>
 <path style="fill:currentColor;fill-opacity:1;stroke:none" 
     d="M 5 4 L 5 5 L 5 19 L 5 20 L 10 20 L 10 19 L 6 19 L 6 5 L 18 5 L 18 12 L 19 12 L 19 4 L 5 4 z M 17 12 L 16.003906 12.994141 L 16 12.994141 L 11 17.988281 L 11.007812 17.990234 L 11.003906 18.992188 L 11 18.992188 L 11 19.982422 L 13 19.982422 L 13.005859 19.982422 L 13.009766 19.982422 L 13.019531 19.982422 L 13.013672 19.980469 L 14 18.994141 L 18 15.001953 L 17.294922 14.292969 L 12.304688 19.275391 L 11.710938 18.683594 L 16.703125 13.699219 L 17.294922 14.292969 L 18 14.996094 L 19 13.996094 L 17 12 z "
     class="ColorScheme-Text"
     />
</svg>
